X:1
T:Blockflöte Sonate Nr.3 G-Dur, from "12 Sonaten für Blockflöte und Basso continuo, Op.1 "
T:Blockflöte Sonate Nr.3 G-Dur
T:from " 12 Sonaten für Blockflöte und Basso continuo, Op.1 " Transcribed from IMSLP#321937 PDF File
T:Jean-Baptiste Loeillet de Gant (1688 — ca.1720)
T:Public Domain
T:Public Domain
T:Public Domain
T:Public Domain
T:Public Domain
T:Public Domain
T:Public Domain
C:Jean-Baptiste Loeillet de Gant (1688 — ca.1720)
Z:26
Z:Public Domain
%%score [ 1 2 ] { ( 3 4 5 ) | 6 }
L:1/8
Q:1/4=50
M:4/4
K:G
V:1 treble nm="Alto Rec." snm="A."
V:2 bass nm="Fagotto" snm="Bsn."
V:3 treble nm="Harpsichord" snm="Hch."
V:4 treble 
V:5 treble 
V:6 bass 
V:1
"^1. Largo" z8 | z4 d'2- d'/c'/b/a/ | g2- gg ab c'>d' | bg z b/g/ ad gg | gf z a b2- be | %5
 M^c'2 z a d'2- d'/c'/b/a/ | b/a/g/f/ Te>d d4 :: a3 b c'2- c'b/a/ | ^ge z g a2- ab | %9
 c'b/a/ T^g>a ac'/b/ a/=g/f/e/ | ^d2 z f Mb2- b/c'/b/a/ | g(c'/f/) Tf>e e2- ee | %12
 c'2- c'/b/a/g/ Mf2- f/a/b/c'/ | d'2- d'c' Mb2- bc'/d'/ | e'2- e'/d'/c'/b/ a2 z a | %15
 d'2- d'c' b/a/g/a/ Ta>g | g_b/a/ b2- ba/g/ a/b/a/g/ | f/d/g/a/ dMf g4 :| x/8 | %19
[M:4/4]"^2. Allegro"[Q:1/4=110] gdga Mb3 c' | d'c'/b<ag/ Mf3 d | %21
 g/f/g/a/ g/a/g/f/ e/d/e/f/ e/f/g/e/ | a/g/a/b/ a/b/a/g/ f/e/f/g/ f/g/a/f/ | %23
 b/a/b/c'/ b/c'/b/a/ g/f/g/a/ g/a/b/g/ | c'/b/c'/d'/ c'/d'/c'/b/ a2 d'c' | %25
 b/a/g/b/ a/g/f/a/ b/a/g/b/ a/g/f/a/ | b/a/g/b/ c'/b/a/c'/ d'd ef/g/ | fdga b/a/g/a/ df | %28
 gdga Mb3 c' | d'c'/b/ ag fg Pa2- | a/b/a/b/ Ma2- a/b/a/b/ Pa2- | %31
 a/b/a/b/ a/b/a/b/ a/b/a/b/ a/b/a/b/ | ag/f/ Te>d d4 :: dAde Mf3 g | ag/f/ e>d M^c2 z A | %35
 d/=c/d/e/ d/e/d/c/ B/A/B/c/ B/c/d/B/ | e/d/e/f/ e/f/e/d/ ^c/B/c/d/ c/d/e/c/ | %37
 f/e/f/g/ f/g/f/e/ ^dBb=a | g/f/e/g/ f/e/^d/f/ g/f/e/g/ f/e/d/f/ | g/f/e/g/ a/g/f/a/ bB ^c^d/e/ | %40
 ^dBef g/f/e/f/ Bd | Me4 eBef | Mg4 gdga | Mb3 c' d'c'/b/ ag | fc'ba ^geae | =fd=gd ecfc | %46
 dBeB cc/d/ e2- | e/=f/e/f/ e2- e/f/e/f/ Me2- | e/=f/e/f/ e/f/e/f/ e/f/e/f/ e/f/e/f/ | %49
 ed/c/ TB>A A2 z A | dd/e/ dc B2 z d | gg/a/ gf egab | c'c'/d'/ c'b aa/b/ ag | %53
 fabc' d'd'/e'/ d'c' | b/a/g/b/ a/g/f/a/ b/a/g/b/ a/g/f/a/ | b/a/g/b/ c'/b/a/c'/ d'd ef/g/ | %56
 fdga b/a/g/a/ df | gg/a/ bc' Pd'2- d'/e'/d'/e'/ | Pd'2- d'/e'/d'/e'/ d'/e'/d'/e'/ d'/e'/d'/e'/ | %59
 d'c'/b/ Ta>g g4 :| z/8 |[M:3/4]"^3. Adagio"[Q:1/4=60] z4 e2 | b6- | b2 agfe | ^d6 | b2 bd'c'b | %66
 c'6 | a2 ac'ba | b2 agfe | ^d2 B2 e2- | ef Tf3 e | e4 z2 | e2 e2 f2 | g2 agfe | Mf2 d4 | %75
 d2 d'2 c'2 | b2 b2 a2 | Pg2 c'bag | Pf2 bagf | Pe2 agfe | f2 d2 (d'g) | c'b Ta3 g | g4 b2- | %83
 b2 a2 b2 | c'2 d'c' ba | b2 g4- | g2 agfe | ^d6 | b2 b=d'c'b | Tc'4 b2 | a2 d'c'ba | M^g2 e2 z2 | %92
 a2 a2 b2 | c'6 | c'a T^g3 a | a2 c'2 c'2 | (c'>b) b2 b2 | (b>a) a2 a2 | a2 ^g2 z2 | z2 a2 e2 | %100
 f4 z2 | z2 g2 d2 | e2 ab ag | f2 d2 g2- | ga f3 g | g6- | g2 fg fe | ^d6 | B2 b2 a2 | g2 g2 f2 | %110
 e2 e2 =d2 | c2 c'2 b2 | Ma2 a4- | a2 bagf | Mg4 g2 | (g>f) f2 f2 | (f>e) e2 e2 | e2 ^d2 z2 | %118
 e2 e2 f2 | Mg6- | ge ^d3 e | e2 efga | b6- | ba ^a4 | b6 |] %125
[M:2/4]"^Gavotta (Allegro)"[Q:1/2=90] d'2 g2 | f2 g2 | Ma2 bc' | b2 g2 | bd'c'b | ac'ba | gbag | %132
 f2 d2 | Mg2 z2 | e2 z2 | Ma2 z2 | f2 z2 | Pb2 z2 | g2 z2 | Mc'2 z2 | a2 z2 | Md'3 c' | b2 a2 | %143
 bc' ad' | b2 a2 | c'2 b2 | a2 g2 | f2 g2 | a4 | _b2 a2 | _b2 a2 | _bc' ad' | M_b2 a2 | d'3 c' | %154
 _ba ga | d2 f2 | Mg4 | _b2 a2 | _b2 a2 | _bc'ad' | M_b2 a2 | d'3 c' | _baga | d2 f2 | Mg4 | %165
 d'3 c' | baga | d2 f2 | !fermata!G4!fine! :: bd'c'b | ac'ba | gbag | f2 d2 | f2 g2 | a4- | a4- | %176
 a4- | a4- | a2 d2 | ^c2 A2 | a2 gf | e^c de | Te3 d | d4 | a2 gf | e^c de | Te3 d | d4 | A2 d2 | %189
 B2 g2 | Pf3 e | ^d2 B2 | b3 a | Mg2 f2 | ga fb | g2 f2 | b3 a | gfef | B2 ^d2 | Pe4 | b3 a | %201
 gfef | Pf3 e | e4 | b2 e2 | ^d2 e2 | Mf2 ga | g2 e2 | g3 f | ed ^cd | ed^cB | ^A4 | =d2 e2 | f4- | %214
 f4- | f4- | f4- | f4 | gfed | ed^cB | ^A4 | f3 e | d2 ^c2 | T^c3 B | B4 | f2 ^a2 | b3 ^c | %227
 T^c3 B | B4!D.C.! :| %229
V:2
 G,,G,/F,/ G,D, E,,E,/D,/ E,B,, | C,B,,A,,D, G,,G,/F,/ G,D, | E,,E,/D,/ E,B,, C,B,,A,,D, | %3
 G,,G,/A,/ B,G, D,D/C/ B,^C | DD,/E,/ F,D, G,,G,/F,/ G,G,, | A,,A,/G,/ A,G, F,,F,/E,/ F,D, | %6
 G,E,A,A,, D,4 :: D,D/^C/ D^G, A,,A,/G,/ A,D, | E,E/^D/ E=D =C,C/B,/ C^G, | A,D,E,E,, A,,2 z A, | %10
 B,,B,/A,/ B,A, G,,G,/F,/ G,F, | E,A,B,B,, E,E/^D/ EE, | A,,A,/^G,/ A,A,, D,D/^C/ D=C | %13
 B,,B,/A,/ B,A, G,,G,/F,/ G,G,, | C,C/B,/ CC, D,D/^C/ D=C | B,,B,/A,/ B,A, G,C, D,D,, | %16
 G,,2 z G, ^C,2 =C,2- | C,=B,,/C,/ D,D,, G,,4 :| z/8 |[M:4/4] z4 G,D,G,A, | B,3 C D,D/E/ DC | %21
 B,B,/A,/ B,G, CC/D/ CB, | A,B,^CA, DD/E/ D=C | B,B,, z B, EE/F/ ED | CC, z C DCB,A, | %25
 G,,G,F,D, G,,G,F,D, | G,G,,A,A,, B,/A,/G,/B,/ C/B,/A,/C/ | DCB,A, G,CDD, | G,4 G,D,G,A, | %29
 B,3 C D2 z D | ^CC/B,/ CA, DEFD | ^CC/B,/ CA, DEFD | ^CDA,A,, D,4 :: z4 D,A,,D,E, | %34
 F,3 G, A,,A,/B,/ A,G, | F,F,/E,/ F,D, G,G,/A,/ B,A, | ^G,G,/F,/ G,E, A,A,/B,/ ^CB, | %37
 ^A,A,/^G,/ A,F, B,=A,=G,F, | E,,E,^D,B,, E,,E,D,B,, | E,2 F,2 G,/F,/E,/G,/ A,/G,/F,/A,/ | %40
 B,A,G,F, E,A,B,B,, | E,B,,E,F, G,4 | G,D,G,A, B,4 | G,D,G,A, B,3 C | D2 ^D2 E=D=CA, | %45
 DCB,G, CB,A,=F, | B,A,^G,E, A,2 z A, | ^G,G,/^F,/ G,E, A,B,CA, | ^G,G,/F,/ G,E, A,B,CA, | %49
 ^G,A,E,E,, A,,A,/B,/ A,=G, | F,2 z D, G,,G,/A,/ G,F, | E,2 z D, C,2 z B,, | %52
 A,,A,/B,/ A,G, F,,F,/G,/ F,E, | D,2 z C, B,,B,/C/ B,A, | G,,G,F,D, G,,G,F,D, | %55
 G,G,,A,A,, B,/A,/G,/B,/ C/B,/A,/C/ | DCB,A, G,C,D,D,, | G,,2 z G, F,F,/E,/ F,D, | %58
 G,A,B,G, F,F,/E,/ F,D, | G,C,D,D,, G,,4 :| z/8 |[M:3/4] E,2 E,2 E,2 | ^D,2 =D,2 D,2 | %63
 ^C,2 =C,2 C,2 | B,,2 B,2 A,2 | ^G,2 G,2 G,2 | A,2 A,2 G,2 | F,2 F,2 F,2 | G,2 A,2 A,2 | %69
 A,2 A,2 G,2 | A,2 B,2 B,,2 | E,2 E,2 F,2 | G,2 G,2 ^D,2 | E,2 C,2 C,2 | =D,2 D2 C2 | B,2 B,2 A,2 | %76
 G,2 G,2 F,2 | E,2 E,2 E,2 | E,2 D,2 D,2 | (D,2 C,2) C,2 | C,2 C,2 B,,2 | C,2 D,2 D,,2 | %82
 G,,2 G,,2 G,,2 | D,2 D,2 D,2 | E,2 F,2 D,2 | G,2 G,2 G,2 | A,2 A,2 A,2 | A,2 B,2 A,2 | %88
 ^G,2 G,2 G,2 | A,2 A,2 =G,2 | =F,2 F,2 D,2 | E,2 E,2 D,2 | C,2 C,2 ^G,,2 | A,,2 A,,2 A,,2 | %94
 ^D,2 E,2 E,,2 | A,,2 A,2 A,2 | ^G,2 =G,2 G,2 | F,2 =F,2 F,2 | E,2 E,2 D,2 | ^C,2 C,2 C,2 | %100
 D,2 D,2 =C,2 | B,,2 B,,2 B,,2 | C,2 C,2 C,2 | D,2 C,2 B,,2 | C,2 D,2 D,,2 | G,,2 G,,2 G,,2 | %106
 A,,2 A,,2 A,,2 | B,,2 B,2 A,2 | G,2 G,2 F,2 | E,2 E,2 =D,2 | C,2 C2 B,2 | A,2 A,2 G,2 | %112
 F,2 F,2 E,2 | ^D,2 D,2 D,2 | E,2 E2 E2 | ^D2 =D2 D2 | ^C2 =C2 C2 | B,2 B,2 A,2 | G,2 G,2 ^D,2 | %119
 E,2 E,2 E,2 | ^A,,2 B,,2 B,,2 | E,2 E,2 E,2 | ^D,2 =D,2 D,2 | ^C,2 =C,2 C,2 | B,,6 |][M:2/4] z4 | %126
 D2 G,2 | F,2 D,2 | G,2 G,,2 | G,2 z2 | F,2 z2 | E,2 ^C,2 | D,E,D,=C, | B,,A,,B,,G,, | C,D,C,B,, | %135
 A,,B,,C,A,, | D,E,D,C, | B,,C,D,B,, | E,F,E,D, | C,D,E,C, | D,E,D,C, | B,,2 A,,2 | G,2 D,2 | %143
 G,2 F,2 | G,2 D,2 | E,2 D,2 | C,2 B,,2 | A,,2 G,,2 | D,4 | G,2 F,2 | G,2 D,2 | G,2 F,2 | %152
 G,2 D,E, | F,2 D,2 | G,A, _B,C | D2 D,2 | G,4 | G,2 F,2 | G,2 D,2 | G,2 F,2 | G,2 D,E, | F,2 D,2 | %162
 G, A, _B,C | D2 D,2 | G,4 | F,2 D,2 | G,2 C,2 | D,2 D,,2 | !fermata!G,,4 :: G,2 z2 | F,2 z2 | %171
 E,2 ^C,2 | D,2 D,,2 | z4 | D,E,F,D, | ^C,B,,C,A,, | D,E,F,D, | ^C,B,,C,A,, | D,E,F,G, | A,2 G,2 | %180
 F,2 G,2 | A,G,F,G, | A,2 A,,2 | D,4 | ^C,2 D,2 | A,G,F,G, | A,2 A,,2 | D,4 | D,2 F,2 | G,2 E,2 | %190
 A,2 F,2 | B,2 A,2 | G,2 ^D,2 | E,2 B,,2 | E,2 ^D,2 | E,2 B,,^C, | ^D,2 B,,2 | E,F,G,A, | %198
 B,2 B,,2 | E,4 | ^D,2 B,,2 | E,F,G,A, | B,2 B,,2 | E,4 | z4 | B,2 E,2 | ^D,2 B,,2 | E,2 E,,2 | %208
 E,2 F,2 | G,F,E,F, | G,2 E,2 | F,E,D,^C, | B,,4 | B,^CDB, | ^A,^G,A,F, | B,^CDB, | ^A,^G,A,F, | %217
 B,^CDC | B,=A,=G,F, | G,2 E,2 | F,2 E,2 | (D,2 ^A,,2 | B,, ^C,) D, z | F,2 F,,2 | B,,4 | %225
 ^A,2 F,2 | G,2 E,2 | F,2 F,,2 | B,,4 :| %229
V:3
 d2- d/c/B/A/ G2- GG | AG c>B BB/A/ BF | G2- GG AG F2 | [DG-]2 GB A2 de | Ad- dd [Bd]2 e2 | %5
 [A^c]3 [EA-] AA/G/ AF | D2 E2 F4 :: [FA]3 [EB] [EA=c]3 [D=FB] | ^GG/F/ [EG][EG] AA/G/ [EA][EB] | %9
 [CEA][B,=FA] A^G [CEA]2 z c | B2 z [FB] B2 BA | cc B2 BB- BB | [EA]2- [EA][EA] A2- AA | %13
 d2- dc BB/A/ BB | [Gc]2 AA A2- AA | G2 G=F GA [DA]2 | G z z D E4 | [D^F]GGF G4 :| z/8 | %19
[M:4/4] z4 [B,DG]3 [CF] | [DG]3 [EGA] A3 A | G3 G G3 G | A4 [FA]3 [FA] | [DG]2 z G [GB]3 [GB] | %24
 [EGc]2 z [EG] F2 [DG][CF] | [B,DG]2 [DA]2 [DB]2 [DA]2 | [DB]2 [CF]2 [DG]2 [EA]2 | A2 dc BA A2 | %28
 [B,DG]4 [B,DG]3 [CF] | [DG]3 [EGA] [FA]2 z [FA] | [EA]3 ^c d4 | [EA]3 ^c d4 | ed d^c d4 :: %33
 z4 [A,F]3 [G,^C] | [A,D]3 [B,DE] [^CE]3 [CEA] | [DA]3 [DFA] [DGB]2 [DG][C=F] | %36
 [B,E]3 [D^G] [^CA]2 [EA][D=G] | [^CF]3 [CF^A] [^DF]2 E[DF] | G2 F^D G2 FD | G2 A2 [EG]2 FA | %40
 F2 BA GF F2 | [G,B,E]4 [B,E]4 | [B,DG]4 [DG]4 | [DGB]3 [CFA] [DG]3 [EGA] | A2 BA ^G2 A=G | %45
 =F2 GF E2 FE | D2 B2 [CEA]2 z [CEA] | [EB]3 [E^GB] [EAc]4 | [EB]3 [E^GB] [EAc]4 | %49
 B A2 ^G [CEA]2 z [^CA] | [DA]2 z [FA] [DGB]3 [DA] | [EG]2 z [FB] [EGc]2 z [DGd] | %52
 [EAc]3 [EA] [DAd]3 [EGc] | [FA]2 z [DFA] [DG]3 [CF] | [B,DG]2 AF [B,DG]2 AF | %55
 [B,DG]2 [CF]2 [DG]2 [EA]2 | [DF]2 [DG][CF] [B,DG][EGA] [DA]2 | [B,DG]2 z [B,DG] [DA]3 [DFc] | %58
 [GB]AGB [DA]3 [DFc] | [DGB][EGA] [DA]2 [B,DG]4 :| z/8 |[M:3/4] [EG]6 | F2 =F4 | E2 E4 | ^D2 F4 | %65
 E6 | E6 | D6 | D2 F2 E2 | [B,^D]4 E2 | F2 F4 | [G,B,E]4 [A,^D]2 | [B,E]2 B4 | B2 A4 | A4 F2 | %75
 G4 F2 | [DG]4 A2 | G2 G4 | F2 [FB]4 | [EG]2 [EA]4 | [A,DF]4 G2 | A2 G2 F2 | [B,DG]4 B2- | %83
 B2 A2 B2 | [Gc]2 A2 F2 | B2 [GB]4 | c6 | B4 z2 | B2 B4 | A4 E2 | E2 D2 =F2 | E2 [A,CE]2 [B,E^G]2 | %92
 [EA]4 [EB]2 | [EA]6 | A4 ^G2 | [CEA]2 =F4 | =F4 E2 | E4 D2 | [CE]2 [^G,B,E]4 | [A,EA]6 | [DFA]6 | %101
 d4 B2- | B2 c4 | [FA]4 [GB]2 | A2 [DA]4 | G4 G2- | G2 F2 A2 | [B,F]6 | [B,E]4 [A,^DA]2 | %109
 [B,EG]4 [B,FB]2 | [CEA]4 [=DG]2 | [CF]4 [B,G]2 | ^D2 D2 E2 | F2 F4 | E2 c4 | c4 B2 | B4 A2 | %117
 G2 F2 B2 | B4 B2 | [EB]6 | [G^c]2 [FB]4 | [GB]4 G2 | F2 =F4 | E3 GFE | [^DF]6 |][M:2/4] z4 | %126
 D2 [B,D]2 | [A,D]2 [CF]2 | [B,G]4 | [B,G]2 z2 | A2 z2 | [G^c]2 [GAe]2 | d2 A2 | G2 z2 | G2 AB | %135
 c2 A2 | F2 z2 | d2 B2 | c3 B | A2 c2 | [FA]4 | [DG]2 z2 | [B,G]2 F2 | [B,G]2 [A,D]2 | %144
 [B,G]2 [DF]2 | [CG]2 [B,FB]2 | [CEA]2 [DGB]2 | [CFc]2 [D-GB]2 | D2 C2 | [_B,G]2 [A,D]2 | %150
 [B,G]2 A,2 | [_B,G]2 [A,D]2 | [_B,G]2 FG | A2 F2 | G2 (d2 | [Ad]4) | _B2 BA | [_B,G]2 [A,D]2 | %158
 [_B,G]2 [A,F]2 | [_B,G]2 [A,D]2 | [_B,G]2 FG | A2 F2 | _B2 d2 | [Ad]4 | [_Bd]2 B^c | d3 c | %166
 [DG=B]2 [EGA]2 | [DA]4 | !fermata![B,DG]4 :: [GBd]2 z2 | [DAd]2 z2 | [G^c]2 [GAe]2 | [FAd]4 | z4 | %174
 A4- | A4- | A4- | A4 | A2 d2 | [EA^c]4 | A2 B2 | A3 B | E2 A2 | [DF]4 | A2 [DF]2 | [^CE]2 A B | %186
 E2 A2 | F4 | A4 | B4 | ^c2 fe | ^d4 | [Be]2 [ABf]2 | [GBe]2 [FB^d]2 | [GBe]2 [FBf]2 | [Be]2 ^d^c | %196
 B3 A | G2 [EB]2 | [FB]4 | [EG]4 | B3 A | G2 B2- | [FB]4 | [EG]4 | z4 | [^DFB]2 [EGB]2 | B3 A | %207
 [B,EG]4 | e2 ^d2 | e2 ^c [Ad] | e2 ^c2 | ^A2 B^c | =d4 | B4 | ^c2 c2 | d2 Bd | ^c2 c2 | dcB=A | %218
 G2 B2- | B2 [G^c]2 | [F^A]4 | [FB]2 [EF^c]2 | [DFB]2 B2- | B2 ^A2 | B4 | F2 ^A2 | B4- | B2 ^A2 | %228
 B4 :| %229
V:4
 x3 [D-F] DC/B,/ CD | ED F2 G2 D2- | DC/B,/ CD ED C2 | B,B,/C/ DD/E/ F2 G2- | GF/G/ AF G2 [GB]2 | %5
 E3 ^C D2- DD | B,2 D^C [A,D]4 :: x8 | [B,E]2 x2 E2 EB, | x7 ^F/E/ | ^D2 x ^d ee/d/ e=d | %11
 G[EF]- [EF]^D [EG]G/F/ G x | CC/B,/ CC FF/E/ FF | GG/F/ GF D2- DD | EE/D/ EE FF/E/ FF | %15
 DD/C/ DC [B,D][EG] G=F | [B,D] x2 _B, B,2 A,2 | A,D/E/ [A,D]2 [B,D]4 :| x/4 |[M:4/4] x8 | %20
 x4 F3 x | D3 B, E3 D | ^CDEC x4 | x3 G x4 | x4 F2 x2 | x8 | x8 | x2 GF G3 F | x8 | x8 | %30
 x3 E FGAF | x3 E FGA x | [EA][FA] [EA]2 [FA]4 :: x8 | x8 | x8 | x8 | x6 B,A, | %38
 [B,E]2 B,2 [B,E]2 B,2 | [B,E]2 [A,^D]2 B,2 ^C2 | ^D2 ED E2 ED | x8 | x8 | x8 | F2 F2 E2 E2 | %45
 D4 C4 | D2 ED x4 | x8 | x8 | E[CE] [B,E]2 x4 | x8 | x8 | x8 | x8 | x2 D2 x2 D2 | x8 | x6 GF | x8 | %58
 D2 D2 x4 | x2 GF x4 :| x/4 |[M:3/4] x6 | B,6- | B,2 A,4 | B,2 ^D4 | B,6 | C3 B, C2 | A,3 A,B,C | %68
 B,2 C4 | B,4 x2 | [CE]2 E2 ^D2 | x6 | x2 E2 F2 | [EG]2 E4 | [=DF]4 D2- | D4 C2 | B,4 [A,D]2 | %77
 [B,D]2 [C-E]4 | C2 (B,4 | B,2) A,4 | x4 D2 | [CE]2 [A,D]4 | x4 [DG]2- | [DG]2 [DF]2 [DF]2 | %84
 C2 D4 | [DG]2 [DG]4 | G2 F2 E2 | [^DF]6 | E2 E=FE=D | [CE]4 B,2 | A,6 | [^G,B,]2 x4 | x4 D2 | C6 | %94
 [CF]2 [B,E]4 | x2 C4 | B,4 B,2 | A,2 A,4 | x6 | x6 | x6 | [DG]2 [DG]4 | G2 A2 G2 | D6 | E2 G2 F2 | %105
 [B,D]4 [B,D]2 | [A,C]4 [CE]2 | D^C DB,CD | x6 | x6 | x6 | x6 | A,2 A,4 | [A,C]2 B,4 | [G,B,]2 G4 | %115
 G2 F2 F2 | F2 E2 E2- | E2 ^D2 [DF]2 | E4 [FA]2 | G3 AGF | E4 ^D2 | E4 B,2- | B,4 B,2 | B,2 ^A,4 | %124
 [B,^D]6 |][M:2/4] x4 | D2 x2 | x4 | x4 | x4 | D2 x2 | x4 | F2 F2 | D2 D2 | E2 E2 | E4 | D2 x2 | %137
 G2 x2 | G2 x2 | G2 x2 | x4 | x4 | x2 DC | x4 | x4 | x4 | x4 | x4 | [FA]4 | x4 | x2 F2 | x4 | %152
 x2 D2 | D4 | x2 (G2 | G2) F2 | G4 | x4 | x4 | x4 | x2 D2 | D4 | G2 G2- | G2 F2 | G4 | A2 F2 | x4 | %167
 G2 F2 | x4 :: x4 | x4 | x4 | x4 | x4 | F2 D2 | E3 ^C | F2 D2 | E3 ^C | F2 A2 | x4 | D4 | ^C2 D2 | %182
 D2 ^C2 | x4 | E2 x2 | x2 D2 | D2 ^C2 | D4 | F2 D2- | D2 G2 | F2 A2 | [FB^d]4 | x4 | x4 | x4 | %195
 G2 F2 | F2 ^D2 | E2 (E2 | E2) ^D2 | x4 | F2 ^D2 | E2 E2- | E2 ^D2 | x4 | x4 | x4 | [B,F]4 | x4 | %208
 [GB]2 [FA]2 | [EB]2 G x | B2 G2 | [CF]2 FE | [=DF]4 | DE F2 | F4 | F2 F2 | F4 | F2 x2 | D2 E2- | %219
 E2 x2 | x4 | x4 | x2 F x | [^CF]4 | [DF]4 | ^C2 F2- | [DF]2 [EG]2 | [^CF]4 | [DF]4 :| %229
V:5
 [GB]2 x6 | x8 | x8 | x8 | x8 | x8 | x8 :: x8 | x8 | x8 | x8 | x8 | x8 | x8 | x8 | x8 | x8 | x8 :| %18
 x/4 |[M:4/4] x8 | x8 | x8 | x8 | x8 | x8 | x8 | x8 | x8 | x8 | x8 | x8 | x8 | x8 :: x8 | x8 | x8 | %36
 x8 | x8 | x8 | x8 | x8 | x8 | x8 | x8 | x8 | x8 | x8 | x8 | x8 | x8 | x8 | x8 | x8 | x8 | x8 | %55
 x8 | x8 | x8 | x8 | x8 :| x/4 |[M:3/4] x6 | x6 | x6 | x6 | x6 | x6 | x6 | x6 | x6 | x6 | x6 | x6 | %73
 x6 | x6 | x6 | x6 | x6 | x6 | x6 | x6 | x6 | x6 | x6 | x6 | x6 | x6 | x6 | x6 | x6 | x6 | x6 | %92
 x6 | x6 | x6 | x6 | x6 | x6 | x6 | x6 | x6 | x6 | E6 | x6 | x6 | x6 | x6 | x6 | x6 | x6 | x6 | %111
 x6 | x6 | x6 | x6 | x6 | x6 | x6 | x6 | x6 | x6 | x6 | x6 | x6 | x6 |][M:2/4] x4 | x4 | x4 | x4 | %129
 x4 | x4 | x4 | x4 | x4 | x4 | x4 | x4 | x4 | x4 | x4 | x4 | x4 | x4 | x4 | x4 | x4 | x4 | x4 | %148
 x4 | x4 | x4 | x4 | x4 | x4 | x4 | x4 | x4 | x4 | x4 | x4 | x4 | x4 | x4 | x4 | x4 | D4 | x4 | %167
 x4 | x4 :: x4 | x4 | x4 | x4 | x4 | x4 | x4 | x4 | x4 | x4 | x4 | x4 | x4 | x4 | x4 | x4 | x4 | %186
 x4 | x4 | x4 | x4 | x4 | x4 | x4 | x4 | x4 | x4 | x4 | x4 | x4 | x4 | x4 | x4 | x4 | x4 | x4 | %205
 x4 | x4 | x4 | x4 | x4 | x4 | x4 | x4 | x4 | x4 | x4 | x4 | x4 | x4 | x4 | x4 | x4 | x4 | x4 | %224
 x4 | x4 | x4 | x4 | x4 :| %229
V:6
 G,,G,/F,/ G,D, E,,E,/D,/ E,B,, | C,B,,A,,D, G,,G,/F,/ G,D, | E,,E,/D,/ E,B,, C,B,,A,,D, | %3
 G,,G,/A,/ B,G, D,D/C/ B,^C | DD,/E,/ F,D, G,,G,/F,/ G,G,, | A,,A,/G,/ A,G, F,,F,/E,/ F,D, | %6
 G,E,A,A,, D,4 :: D,D/^C/ D^G, A,,A,/G,/ A,D, | E,E/^D/ E=D =C,C/B,/ C^G, | A,D,E,E,, A,,2 z A, | %10
 B,,B,/A,/ B,A, G,,G,/F,/ G,F, | E,A,B,B,, E,E/^D/ EE, | A,,A,/^G,/ A,A,, D,D/^C/ D=C | %13
 B,,B,/A,/ B,A, G,,G,/F,/ G,G,, | C,C/B,/ CC, D,D/^C/ D=C | B,,B,/A,/ B,A, G,C, D,D,, | %16
 G,,2 z G, ^C,2 =C,2- | C,=B,,/C,/ D,D,, G,,4 :| z/8 |[M:4/4] z4 G,D,G,A, | B,3 C D,D/E/ DC | %21
 B,B,/A,/ B,G, CC/D/ CB, | A,B,^CA, DD/E/ D=C | B,B,, z B, EE/F/ ED | CC, z C DCB,A, | %25
 G,,G,F,D, G,,G,F,D, | G,G,,A,A,, B,/A,/G,/B,/ C/B,/A,/C/ | DCB,A, G,CDD, | G,4 G,D,G,A, | %29
 B,3 C D2 z D | ^CC/B,/ CA, DEFD | ^CC/B,/ CA, DEFD | ^CDA,A,, D,4 :: z4 D,A,,D,E, | %34
 F,3 G, A,,A,/B,/ A,G, | F,F,/E,/ F,D, G,G,/A,/ B,A, | ^G,G,/F,/ G,E, A,A,/B,/ ^CB, | %37
 ^A,A,/^G,/ A,F, B,=A,=G,F, | E,,E,^D,B,, E,,E,D,B,, | E,2 F,2 G,/F,/E,/G,/ A,/G,/F,/A,/ | %40
 B,A,G,F, E,A,B,B,, | E,B,,E,F, G,4 | G,D,G,A, B,4 | G,D,G,A, B,3 C | D2 ^D2 E=D=CA, | %45
 DCB,G, CB,A,=F, | B,A,^G,E, A,2 z A, | ^G,G,/^F,/ G,E, A,B,CA, | ^G,G,/F,/ G,E, A,B,CA, | %49
 ^G,A,E,E,, A,,A,/B,/ A,=G, | F,2 z D, G,,G,/A,/ G,F, | E,2 z D, C,2 z B,, | %52
 A,,A,/B,/ A,G, F,,F,/G,/ F,E, | D,2 z C, B,,B,/C/ B,A, | G,,G,F,D, G,,G,F,D, | %55
 G,G,,A,A,, B,/A,/G,/B,/ C/B,/A,/C/ | DCB,A, G,C,D,D,, | G,,2 z G, F,F,/E,/ F,D, | %58
 G,A,B,G, F,F,/E,/ F,D, | G,C,D,D,, G,,4 :| z/8 |[M:3/4] E,2 E,2 E,2 | ^D,2 =D,2 D,2 | %63
 ^C,2 =C,2 C,2 | B,,2 B,2 A,2 | ^G,2 G,2 G,2 | A,2 A,2 G,2 | F,2 F,2 F,2 | G,2 A,2 A,2 | %69
 A,2 A,2 G,2 | A,2 B,2 B,,2 | E,2 E,2 F,2 | G,2 G,2 ^D,2 | E,2 C,2 C,2 | =D,2 D2 C2 | B,2 B,2 A,2 | %76
 G,2 G,2 F,2 | E,2 E,2 E,2 | E,2 D,2 D,2 | (D,2 C,2) C,2 | C,2 C,2 B,,2 | C,2 D,2 D,,2 | %82
 G,,2 G,,2 G,,2 | D,2 D,2 D,2 | E,2 F,2 D,2 | G,2 G,2 G,2 | A,2 A,2 A,2 | A,2 B,2 A,2 | %88
 ^G,2 G,2 G,2 | A,2 A,2 =G,2 | =F,2 F,2 D,2 | E,2 E,2 D,2 | C,2 C,2 ^G,,2 | A,,2 A,,2 A,,2 | %94
 ^D,2 E,2 E,,2 | A,,2 A,2 A,2 | ^G,2 =G,2 G,2 | F,2 =F,2 F,2 | E,2 E,2 D,2 | ^C,2 C,2 C,2 | %100
 D,2 D,2 =C,2 | B,,2 B,,2 B,,2 | C,2 C,2 C,2 | D,2 C,2 B,,2 | C,2 D,2 D,,2 | G,,2 G,,2 G,,2 | %106
 A,,2 A,,2 A,,2 | B,,2 B,2 A,2 | G,2 G,2 F,2 | E,2 E,2 =D,2 | C,2 C2 B,2 | A,2 A,2 G,2 | %112
 F,2 F,2 E,2 | ^D,2 D,2 D,2 | E,2 E2 E2 | ^D2 =D2 D2 | ^C2 =C2 C2 | B,2 B,2 A,2 | G,2 G,2 ^D,2 | %119
 E,2 E,2 E,2 | ^A,,2 B,,2 B,,2 | E,2 E,2 E,2 | ^D,2 =D,2 D,2 | ^C,2 =C,2 C,2 | B,,6 |][M:2/4] z4 | %126
 D2 G,2 | F,2 D,2 | G,2 G,,2 | G,2 z2 | F,2 z2 | E,2 ^C,2 | D,E,D,=C, | B,,A,,B,,G,, | C,D,C,B,, | %135
 A,,B,,C,A,, | D,E,D,C, | B,,C,D,B,, | E,F,E,D, | C,D,E,C, | D,E,D,C, | B,,2 A,,2 | G,2 D,2 | %143
 G,2 F,2 | G,2 D,2 | E,2 D,2 | C,2 B,,2 | A,,2 G,,2 | D,4 | G,2 F,2 | G,2 D,2 | G,2 F,2 | %152
 G,2 D,E, | F,2 D,2 | G,A, _B,C | D2 D,2 | G,4 | G,2 F,2 | G,2 D,2 | G,2 F,2 | G,2 D,E, | F,2 D,2 | %162
 G, A, _B,C | D2 D,2 | G,4 | F,2 D,2 | G,2 C,2 | D,2 D,,2 | !fermata!G,,4 :: G,2 z2 | F,2 z2 | %171
 E,2 ^C,2 | D,2 D,,2 | z4 | D,E,F,D, | ^C,B,,C,A,, | D,E,F,D, | ^C,B,,C,A,, | D,E,F,G, | A,2 G,2 | %180
 F,2 G,2 | A,G,F,G, | A,2 A,,2 | D,4 | ^C,2 D,2 | A,G,F,G, | A,2 A,,2 | D,4 | D,2 F,2 | G,2 E,2 | %190
 A,2 F,2 | B,2 A,2 | G,2 ^D,2 | E,2 B,,2 | E,2 ^D,2 | E,2 B,,^C, | ^D,2 B,,2 | E,F,G,A, | %198
 B,2 B,,2 | E,4 | ^D,2 B,,2 | E,F,G,A, | B,2 B,,2 | E,4 | z4 | B,2 E,2 | ^D,2 B,,2 | E,2 E,,2 | %208
 E,2 F,2 | G,F,E,F, | G,2 E,2 | F,E,D,^C, | B,,4 | B,^CDB, | ^A,^G,A,F, | B,^CDB, | ^A,^G,A,F, | %217
 B,^CDC | B,=A,=G,F, | G,2 E,2 | F,2 E,2 | (D,2 ^A,,2 | B,, ^C,) D, z | F,2 F,,2 | B,,4 | %225
 ^A,2 F,2 | G,2 E,2 | F,2 F,,2 | B,,4 :| %229

